X: 2039
T: Ashplant, The
R: reel
M: 4/4
K: Eminor
GA|:BE (3EDE BAGA|BE (3EDE G2 GA|BE (3EDE BABd|egdB ABGA|
BE (3EDE BAGA|BE (3EDE G2 GA|B2 BA Bdef|gedB A2 GA:|
|:(3BcB eB gBeB|(3BcB ed BAGA|(3BcB ef gfga|gedB A2 GA|
(3BcB eB gBeB|(3BcB ed BAGA|Bdef gfga|gedB A2:|

